X:172
T: Die Mordeltern
N: Q0085N
O: Mitteleuropa, Deutschland / Frankreich, Elsass
R: Ballade, Habgier, Mord, Reue, Selbstmord
M: 3/4
L: 1/16
K: G
D2DEF2 | G4B4F3G | A6
D2DEFG | A4A3AG2A2 | B6
G2G2B2 | B2A2c4A2e2 | d6
G2G2B2 | B2A2c4F4 | G4z2

